app/src/svg/RingSizer.svg

<?xml version="1.0" encoding="UTF-8"?>
<svg width="28px" height="29px" viewBox="0 0 28 29" version="1.1" xmlns="http://www.w3.org/2000/svg" xmlns:xlink="http://www.w3.org/1999/xlink">
    <!-- Generator: Sketch 63.1 (92452) - https://sketch.com -->
    <title>Group 17</title>
    <desc>Created with Sketch.</desc>
    <g id="Symbols" stroke="none" stroke-width="1" fill="none" fill-rule="evenodd" stroke-linecap="round">
        <g id="desktop-product-drawers-01" transform="translate(-180.000000, -174.000000)" stroke-width="0.25">
            <g id="Group-17" transform="translate(180.000000, 174.000000)">
                <path d="M11.7015,17.8865 C11.7315,18.9335 11.8625,23.5555 11.8635,23.5705 C11.9195,24.8995 10.8875,25.5105 9.6065,25.3605 C8.7605,25.2615 8.1765,24.6325 8.1095,23.7775 C8.1095,23.7775 7.8575,18.0485 7.8565,18.0455 C7.8555,18.0205 7.0365,17.7985 6.9825,17.7785 C6.2345,17.5085 5.3245,17.1805 4.6585,16.7515 C2.6745,15.4715 1.1915,13.4065 0.7635,11.1595 C-0.1595,6.3225 3.0525,1.3955 8.1745,0.9525 C11.2705,0.6845 14.0745,1.9595 15.8295,4.0875 M16.9535,5.8675 C17.4005,6.8255 17.6665,7.8815 17.7115,8.9985 C17.7745,10.5425 17.4065,12.4995 16.5805,13.8725 C16.1365,14.6115 15.5795,15.3645 14.8635,15.9655 C14.4455,16.3175 14.0055,16.6535 13.4895,16.9385 C13.3845,16.9965 13.2285,17.0705 13.0515,17.1495" id="Stroke-1" stroke="#020302" stroke-linejoin="bevel"></path>
                <path d="M10.7233,23.6452 C10.7233,24.0682 10.3803,24.4112 9.9573,24.4112 C9.5353,24.4112 9.1923,24.0682 9.1923,23.6452 C9.1923,23.2222 9.5353,22.8792 9.9573,22.8792 C10.3803,22.8792 10.7233,23.2222 10.7233,23.6452 Z M10.1423,22.8962 C10.3813,23.0252 10.5433,23.2782 10.5433,23.5692 C10.5433,23.9922 10.2003,24.3342 9.7773,24.3342 C9.6983,24.3342 9.6213,24.3222 9.5493,24.3002 L10.1423,22.8962 Z" id="Stroke-3" stroke="#020302" stroke-linejoin="bevel"></path>
                <path d="M10.6741,16.3175 C10.5611,16.3425 10.4471,16.3635 10.3321,16.3835 C6.4981,17.0225 2.8721,14.4335 2.2321,10.5995 C1.5921,6.7655 4.1821,3.1395 8.0161,2.4995 C10.4251,2.0975 12.7531,2.9705 14.3081,4.6275 M15.5021,6.3575 C15.7921,6.9525 16.0011,7.5975 16.1161,8.2835 C16.6441,11.4515 14.9681,14.4775 12.2071,15.7935 M13.4841,2.1015 C12.4531,1.3775 11.1841,0.9165 9.9491,0.7085 C6.8821,0.1915 3.6391,1.6735 1.7821,4.1205 C1.0371,5.1015 0.5631,6.2635 0.3281,7.4675 C0.0341,8.9685 0.0231,10.4595 0.5391,11.9095 C0.8801,12.8695 1.3671,13.8155 2.0181,14.6165 C2.7481,15.5135 3.6761,16.0745 4.6481,16.6705 M14.1431,4.7205 C14.1351,4.7095 14.1271,4.6985 14.1191,4.6875 C14.1191,4.6875 13.1211,3.5075 12.2141,3.0995 M11.9961,15.3185 C13.2861,14.6185 14.7921,13.3525 15.3891,11.1295 C15.3891,11.1295 16.1331,9.0755 15.1391,6.5355 M5.3321,15.3325 C6.6771,16.1195 8.3361,16.3185 9.8551,16.1195 C9.8551,16.1195 10.0881,16.0785 10.4611,15.9635" id="Stroke-5" stroke="#231F20" stroke-linejoin="bevel"></path>
                <path d="M7.6399,18.858 C7.6269,18.51 7.6169,18.239 7.6119,18.096 M7.7959,23.129 C7.7619,22.207 7.6839,20.068 7.6399,18.858 M8.5069,24.925 C8.1089,24.664 7.8509,24.175 7.8119,23.572 C7.8119,23.571 7.8059,23.405 7.7959,23.129" id="Stroke-7" stroke="#020302" stroke-linejoin="bevel"></path>
                <path d="M12.1121,25.5111 C12.1121,25.5111 14.1131,20.1411 14.1141,20.1381 C14.1221,20.1141 13.4551,19.5891 13.4131,19.5491 C12.8301,19.0061 12.1201,18.3481 11.6751,17.6911 C10.3471,15.7341 9.7881,13.2521 10.2701,11.0161 C11.3061,6.2041 16.1831,2.9331 21.0681,4.5371 C25.8991,6.1231 28.4001,11.1971 26.7091,15.6851 C26.1651,17.1301 25.0641,18.7871 23.7691,19.7251 C23.0721,20.2311 22.2661,20.7051 21.3731,20.9771 C20.8511,21.1361 20.3151,21.2721 19.7281,21.3321 C19.2301,21.3821 17.7761,21.3441 17.7901,21.3071 C17.7901,21.3071 15.6531,26.7781 15.6471,26.7941 C15.1801,28.0401 13.9921,28.1961 12.8721,27.5551 C12.1331,27.1321 11.8401,26.3231 12.1121,25.5111 Z" id="Stroke-9" stroke="#020302" stroke-linejoin="round"></path>
                <path d="M14.5334,26.4173 C14.3684,26.8063 13.9184,26.9873 13.5294,26.8223 C13.1404,26.6563 12.9584,26.2073 13.1244,25.8183 C13.2894,25.4293 13.7394,25.2473 14.1284,25.4133 C14.5174,25.5783 14.6984,26.0283 14.5334,26.4173 Z M14.2924,25.5003 C14.4604,25.7133 14.5114,26.0093 14.3974,26.2763 C14.2314,26.6653 13.7824,26.8473 13.3934,26.6813 C13.3204,26.6503 13.2544,26.6093 13.1974,26.5603 L14.2924,25.5003 Z" id="Stroke-11" stroke="#020302" stroke-linejoin="bevel"></path>
                <path d="M15.2712,6.5753 C16.7552,5.7593 18.5362,5.4723 20.3122,5.9013 C24.0902,6.8133 26.4132,10.6143 25.5022,14.3933 C24.5902,18.1713 20.7882,20.4953 17.0102,19.5833 C13.2322,18.6713 10.9092,14.8693 11.8202,11.0913 C12.3032,9.0893 13.5982,7.4953 15.2712,6.5753 M25.4992,7.6753 C24.8342,6.6043 23.8462,5.6843 22.7922,5.0103 C20.1722,3.3343 16.6082,3.4283 13.9412,4.9533 C12.8722,5.5643 11.9822,6.4483 11.2932,7.4643 C10.4362,8.7303 9.8432,10.0983 9.7492,11.6353 C9.6882,12.6513 9.7662,13.7123 10.0522,14.7043 C10.3722,15.8153 11.0072,16.6953 11.6682,17.6243 M12.8212,16.6593 C13.7502,17.9103 15.1992,18.7423 16.6752,19.1533 C16.6752,19.1533 21.0252,20.1653 23.7202,16.7273 C23.7202,16.7273 25.9882,14.2913 25.0722,10.3033 C25.0722,10.3033 24.6152,8.8273 23.9402,8.0963" id="Stroke-13" stroke="#231F20" stroke-linejoin="bevel"></path>
                <path d="M13.4215,20.7716 C13.5335,20.4456 13.6215,20.1916 13.6675,20.0576 M12.0435,24.7736 C12.3415,23.9106 13.0315,21.9046 13.4215,20.7716 M12.1285,26.7626 C11.8135,26.3346 11.7235,25.7626 11.9015,25.1886 C11.9015,25.1886 11.9555,25.0316 12.0435,24.7736" id="Stroke-15" stroke="#020302" stroke-linejoin="bevel"></path>
            </g>
        </g>
    </g>
</svg>

<svg width="28" height="29" xmlns="http://www.w3.org/2000/svg"><g stroke-width=".25" fill="none" fill-rule="evenodd" stroke-linecap="round"><path d="M11.701 17.887l.162 5.683c.056 1.33-.976 1.94-2.256 1.79-.846-.098-1.43-.727-1.497-1.582l-.253-5.732c-.002-.026-.82-.247-.875-.267-.748-.27-1.658-.599-2.324-1.027-1.984-1.28-3.467-3.345-3.895-5.592C-.158 6.321 3.054 1.396 8.175.952c3.097-.268 5.9 1.006 7.655 3.135m1.124 1.78c.448.957.713 2.013.759 3.13.063 1.545-.305 3.502-1.131 4.875-.444.739-1.002 1.492-1.717 2.093a8.506 8.506 0 01-1.375.973 6.31 6.31 0 01-.438.21" stroke="#020302" stroke-linejoin="bevel"/><path d="M10.723 23.645a.766.766 0 11-1.532 0 .766.766 0 011.532 0zm-.58-.749a.764.764 0 01-.366 1.438.781.781 0 01-.228-.034l.593-1.404z" stroke="#020302" stroke-linejoin="bevel"/><path d="M10.674 16.317a7.039 7.039 0 113.634-11.69m1.194 1.73a7.04 7.04 0 01-3.295 9.436m1.277-13.691c-1.03-.724-2.3-1.185-3.535-1.393-3.067-.517-6.31.965-8.167 3.411C1.037 5.101.563 6.263.328 7.468c-.294 1.5-.305 2.992.211 4.441.341.96.828 1.906 1.48 2.707.73.898 1.657 1.459 2.63 2.055m9.494-11.95l-.024-.034s-.998-1.18-1.905-1.588m-.218 12.22c1.29-.7 2.796-1.967 3.393-4.19 0 0 .744-2.053-.25-4.593m-9.807 8.797c1.345.786 3.004.986 4.523.786 0 0 .233-.04.606-.155" stroke="#231F20" stroke-linejoin="bevel"/><path d="M7.64 18.858l-.028-.762m.184 5.033l-.156-4.271m.867 6.067c-.398-.261-.656-.75-.695-1.353l-.016-.443" stroke="#020302" stroke-linejoin="bevel"/><path d="M12.112 25.511l2.002-5.373c.008-.024-.659-.549-.7-.589-.584-.543-1.294-1.2-1.739-1.858-1.328-1.957-1.887-4.439-1.405-6.675 1.036-4.812 5.913-8.083 10.798-6.479 4.831 1.586 7.332 6.66 5.641 11.148-.544 1.445-1.645 3.102-2.94 4.04-.697.506-1.503.98-2.396 1.252a8.562 8.562 0 01-1.645.355c-.498.05-1.952.012-1.938-.025l-2.143 5.487c-.467 1.246-1.655 1.402-2.775.761-.739-.423-1.032-1.232-.76-2.044z" stroke="#020302" stroke-linejoin="round"/><path d="M14.533 26.417a.766.766 0 11-1.409-.6.766.766 0 011.41.6zm-.24-.917a.767.767 0 01-1.096 1.06l1.095-1.06z" stroke="#020302" stroke-linejoin="bevel"/><path d="M15.271 6.575A7.038 7.038 0 1122.05 18.91a7.038 7.038 0 01-6.779-12.335m10.228 1.1c-.665-1.07-1.653-1.99-2.707-2.665-2.62-1.676-6.184-1.582-8.85-.057-1.07.611-1.96 1.495-2.649 2.511-.857 1.266-1.45 2.634-1.544 4.171-.06 1.016.017 2.077.303 3.07.32 1.11.955 1.99 1.616 2.92m1.153-.966c.93 1.251 2.378 2.083 3.854 2.494 0 0 4.35 1.012 7.045-2.426 0 0 2.268-2.436 1.352-6.424 0 0-.457-1.476-1.132-2.207" stroke="#231F20" stroke-linejoin="bevel"/><path d="M13.421 20.772l.247-.714m-1.624 4.716l1.377-4.002m-1.292 5.99c-.316-.427-.405-1-.227-1.573l.142-.415" stroke="#020302" stroke-linejoin="bevel"/></g></svg>
